X:1
T:Kjerubsang #7
T:Dmitri Bortnjanski/Дмитрiй Степанович Бортнянський
%%score [ 1 2 3 4 ]
L:1/8
Q:1/4=80
M:4/4
K:D
V:1 treble nm="Sopranes"
V:2 treble nm="Altos"
V:3 treble-8 nm="Ténors"
V:4 bass nm="Basses"
V:1
 z8 | (d4 c2) B2 | A6 (Bc) | d4 d2 z2 | A8- | A4 A3 z | e4 d4 | %7
w: |I- * zje|khe- ru- *|vi- mi|taj-|* no,|taj- no|
 c4[Q:1/4=78] B4[Q:1/4=79][Q:1/4=77] |[Q:1/4=76] (A8-[Q:1/4=75][Q:1/4=74][Q:1/4=73] | %9
w: ob- ra-|zu-|
[Q:1/4=80] A2 ^G2 F2 G2 | A6) A2 | A4 z4 || z8 | d2 d2 c2 B2 | A6 (Bc) | d4 d2 z2 | A4 A4 | %17
w: |* ju-|sjte.||I zji- vo- tvo-|rja- sjtei _|troj- tse|tri- svja-|
 A4 A2 z2 | (e4 d4 | c2 e2) d2 B2 | (A8- | A2 ^G2 F2 G2 | A6) A2 | A4 z4 || z8 | d4 c2 B2 | %26
w: tu- ju,|pesn _|_ _ pri- pe-|va-||* ju-|sjte.||Fsja- ko- e|
 A4 A2 (Bc) | d3 d d2 z2 |[Q:1/4=90] B4 B4 | (A2 =c2) B2 A2 | (^G8 | G8 |[Q:1/4=85] F8 | E4 F2 G2 | %34
w: ni- ne zji- *|tej- sko- e|ot- lo-|zjim _ po- pe-|tsje-||||
 F8 | E8 | D6) D2 | D6 A2 | c8 ||[Q:1/4=120] d3 d d2 d2 | e4 c2 d2 | g4 f2 (ed) | d4 c2 z2 | %43
w: ||* ni-|e. A-|min!|Ja- ko da tsa-|rja fsekh po-|di- mem, po- *|di- mem.|
 ([ce]3 [Bd]) [Ac]2 [Ac]2 | [Ac]4 z2 ([^GB][Ac]) | [Bd]4- [Bd]2 [Ac]2 | [^GB]4 z2 A2 | %47
w: An- * gel- ski-|mi ne- *|vi- * di-|mo do-|
 [AB]6 [Ac]2 | ([A-e]4 [Ad]2) [Ac]2 | [AB-]4 [^GB]4 | A2 A4 A2 | c6 c2 | (d4 e2) f2 | f4 e2 z2 | %54
w: ri- no-|si- * ma|tsjin- *|mi. Al- li-|lu- ja,|Al- * li-|lu- ja,|
 (d8[Q:1/4=118][Q:1/4=116][Q:1/4=114] |[Q:1/4=112] ^d8[Q:1/4=110][Q:1/4=108][Q:1/4=106] | %56
w: Al-||
[Q:1/4=104] e6)[Q:1/4=98] e2[Q:1/4=102][Q:1/4=100] | %57
w: * li-|
[Q:1/4=96] (d4[Q:1/4=92] c4)[Q:1/4=94][Q:1/4=90] |[Q:1/4=88] d8[Q:1/4=86][Q:1/4=84][Q:1/4=82] |] %59
w: lu- *|ja.|
V:2
 (F4 E2) D2 | G4 G4 | (G2 E2 F2) G2 | F4 F2 z2 | (E4 D4 | G4) F3 z | E4 E4 | E4 F4 | (E4 D2 C2 | %9
w: I- * zje,|I- zje|khe- * * ru-|vi- mi|taj- *|* no.|taj- no|ob- ra-|zu- * *|
 D8 | C6) C2 | C4 z4 || F2 F2 E2 D2 | (G8- | G2 E2 F2) G2 | F4 F2 z2 | E4 D4 | G4 F2 z2 | E8 | %19
w: |* ju-|sjte.|I zji- vo- tvo-|rja-|* * * sjtei|troj- tse|tri- svja-|tu- ju,|pesn|
 E4 F4 | (E4 D2 C2 | D8 | C6) C2 | C4 z4 || F4 E2 D2 | G8- | G2 E2 F2 G2 | F3 F F2 z2 | D4 D4 | %29
w: pri- pe-|va- * *||* ju-|sjte.|Fsja- ko- e|ni-|* * ne zji-|tej- sko- e|ot- lo-|
 ^D4 D2 D2 | (E4 D4 | C8 | D8 | B,4 ^D2 E2 | D8- | D2 C2 B,2 C2 | D6) A,2 | A,6 C2 | E8 || %39
w: zjim po- pe-|tsje- *||||||* ni-|e. A-|min!|
 F3 F F2 A2 | A4 A2 A2 | A4 A2 (AB) | A4 A2 z2 | A4 A2 A2 | A4 z2 E2 | (E2 ^G4) A2 | E4 z2 C2 | %47
w: Ja- ko da tsa-|rja fsekh po-|di- mem, po- *|di- mem.|An- gel- ski|mi ne-|vi- * di-|mo do-|
 D6 E2 | F6 E2 | (D4 E4) | E2 E4 E2 | A6 A2 | A6 A2 | A4 A2 z2 | (A8- | A8 | G2 A2 B2) G2 | %57
w: ri- no-|si- ma|tsjin- *|mi. Al- li-|lu- ja,|Al- li-|lu- ja,|Al-||* * * li-|
 (F4 E4) | F8 |] %59
w: lu- *|ja.|
V:3
 (A4 G2) F2 | B4 B4 | (c4 d2) e2 | A4 A2 z2 | (c4 d4 | e4) d3 z | c4 ^G4 | A4 (B2- Bd) | %8
w: I- * zje,|I- zje|khe- * ru-|vi- mi|taj- *|* no,|taj- no|ob- ra- * *|
 (c4 B2 A2 | B8 | E6) E2 | E4 z4 || A2 A2 G2 F2 | (B8 | c4 d2) e2 | A4 A2 z2 | c4 d4 | e4 d2 z2 | %18
w: zu- * *||* ju-|sjte.|I zji- vo- tvo-|rja-|* * sjtei|troj- tse|tri- svja-|tu- ju,|
 (c4 ^G4) | A4 (B2 d2) | (c4 B2 A2 | B8 | E6) E2 | E4 z4 || A4 G2 F2 | (B8 | c4) d2 e2 | %27
w: pesn _|pri- pe- *|va- * *||* ju-|sjte.|Fsja- ko- e|ni-|* ne zji-|
 A3 A A2 z2 | z8 | z8 | B4 B4 | e4 e2 e2 | (A8 | B8 | A4 F2 D2 | G8 | F6) F2 | F6 A2 | A8 || %39
w: tej- sko- e|||ot- lo-|zjim po- pe-|tsje-||||* ni-|e. A-|min!|
 A3 A A2 d2 | c4 e2 d2 | c4 d2 d2 | f4 e2 z2 | z8 | z8 | z8 | z8 | z8 | z8 | z8 | c6 c2 | e6 e2 | %52
w: Ja- ko da tsa-|rja fsekh po-|di- mem, po-|di- mem.||||||||Al- li-|lu- ja,|
 (d4 c2) d2 | d4 c2 z2 | (d8 | B8- | B6) B2 | A8 | A8 |] %59
w: Al- * li-|lu- ja,|Al-||* li-|lu-|ja.|
V:4
 D,8- | D,4 D,4 | E,4 A,,4 | D,4 D,2 z2 | (G,4 F,4 | C,4) D,3 z | A,,4 B,,4 | C,4 D,4 | (E,8- | %9
w: I-|* zje|khe- ru-|vi- mi|taj- *|* no,|taj- no|ob- ra-|zu-|
 [E,,E,]8 | A,,6) A,,2 | A,,4 z4 || D,2 D,2 D,2 D,2 | (D,8 | E,4) A,,4 | D,4 D,2 z2 | G,4 F,4 | %17
w: |* ju-|sjte.|I zji- vo- tvo-|rja-|* sjtei|troj- tse|tri- svja-|
 C,4 D,2 z2 | (A,,4 B,,4) | C,4 D,4 | (E,8- | [E,,E,]8 | A,,6) A,,2 | A,,4 z4 || D,4 D,2 D,2 | %25
w: tu- ju,|pesn _|pri- pe-|va-||* ju-|sjte.|Fsja- ko- e|
 (D,8 | E,4) A,,2 A,,2 | D,3 D, D,2 z2 | G,4 G,4 | F,4 F,2 F,2 | (E,8 | A,,8 | D,2 C,2 B,,2 A,,2 | %33
w: ni-|* ne zji-|tej- sko- e|ot- lo-|zjim po- pe-|tsje-|||
 G,,4 F,,2 E,,2 | A,,8- | A,,8 | D,6) D,2 | D,6 A,,2 | A,,8 || D,3 D, D,2 F,2 | A,4 G,2 F,2 | %41
w: |||* ni-|e. A-|min!|Ja- ko da tsa-|rja fsekh po-|
 E,4 (D,E,) (F,G,) | A,4 A,,2 z2 | z8 | z8 | z8 | z8 | z8 | z8 | z8 | A,6 A,2 | G,6 G,2 | %52
w: di- mem, _ po- *|di- mem.||||||||Al- li-|lu- ja,|
 (F,4 E,2) D,2 | A,4 A,,2 z2 | (F,8- | F,8 | E,2 F,2 G,2) E,2 | (A,4 A,,4) | D,8 |] %59
w: Al- * li-|lu- ja,|Al-||* * * li-|lu- *|ja.|

